X: 2
T: Colin Frake intro
T: Transposed with D whistle
C: Thomas Bergersen, Two Steps from Hell
Q: 80
M: 3/4
L: 1/8
K: D
B2 ^F B2 ^F | B>^c d ^c B A | B2 ^F B2 ^F | B>^c d ^c d e |
^f2 d ^f2 A | ^f>e d a>g ^f | e d ^c A>B ^c | d B ^F#>{^F}A d/2 ^c|
B2 ^F B2 ^F | B>^c d ^c B A | B2 ^F B2 ^F | B>^c d ^c d e |
^f2 d ^f2 A | a>g ^f ^f e d| e ^c A A>B ^c | d B G ^F>A d| B8 |